icons/desktop/16/link-16.svg

<svg width="16" height="16" viewBox="0 0 16 16" fill="none" xmlns="http://www.w3.org/2000/svg">
<path d="M2.9616 7.82408C3.8914 6.89436 5.39792 6.89452 6.32781 7.82408L5.26727 8.88463C4.92316 8.54085 4.36616 8.5407 4.02215 8.88463L2.75555 10.1522C2.45664 10.4514 2.41178 10.9307 2.66277 11.2928L2.66375 11.2938C3.15037 11.9968 3.64158 12.547 4.04754 12.952C4.45483 13.3583 5.0051 13.8505 5.70672 14.3368C6.06984 14.588 6.54969 14.5434 6.84832 14.245L8.1159 12.9784C8.45974 12.6345 8.45941 12.0774 8.1159 11.7333L9.17645 10.6727C10.1057 11.6026 10.1061 13.1092 9.17645 14.0389L7.90887 15.3055C7.13516 16.079 5.95508 16.2079 5.03387 15.6835L4.8532 15.5702C4.0634 15.0228 3.44453 14.469 2.98797 14.0135C2.53019 13.5568 1.97839 12.9376 1.43133 12.1473C0.776895 11.2038 0.870538 9.91638 1.695 9.09166L2.9616 7.82408Z" fill="black"/>
<path d="M10.2028 5.73717C10.4957 5.44432 10.9705 5.44437 11.2634 5.73717C11.5559 6.03008 11.5561 6.50493 11.2634 6.79772L6.79754 11.2635C6.50475 11.5563 6.02991 11.5561 5.73699 11.2635C5.44419 10.9706 5.44413 10.4959 5.73699 10.203L10.2028 5.73717Z" fill="black"/>
<path d="M9.09148 1.69518C9.91626 0.870642 11.2045 0.775938 12.1481 1.43053L12.1471 1.43151C12.9375 1.97857 13.5566 2.53036 14.0134 2.98815C14.4688 3.4447 15.0226 4.06357 15.57 4.85338L15.6833 5.03404C16.2077 5.95526 16.0788 7.13533 15.3054 7.90904L14.0387 9.17662C13.109 10.1063 11.6025 10.1059 10.6725 9.17662L11.7331 8.11608C12.0772 8.4596 12.6343 8.45992 12.9782 8.11608L14.2448 6.8485C14.5432 6.54987 14.5878 6.07002 14.3366 5.7069C13.8503 5.00526 13.3582 4.45501 12.9518 4.04772C12.5468 3.64175 11.9967 3.15055 11.2936 2.66393L11.2927 2.66295C10.9305 2.41195 10.4512 2.45681 10.152 2.75572L8.88445 4.02233C8.54052 4.36634 8.54068 4.92334 8.88445 5.26744L7.82391 6.32799C6.89434 5.3981 6.89419 3.89158 7.82391 2.96178L9.09148 1.69518Z" fill="black"/>
</svg>

<!-- This Source Code Form is subject to the terms of the Mozilla Public
   - License, v. 2.0. If a copy of the MPL was not distributed with this
   - file, You can obtain one at http://mozilla.org/MPL/2.0/. -->
<svg xmlns="http://www.w3.org/2000/svg" width="16" height="16" fill="context-fill" fill-opacity="context-fill-opacity" viewBox="0 0 16 16">
    <path d="M2.962 7.824a2.38 2.38 0 0 1 3.366 0l-1.06 1.06a.88.88 0 0 0-1.246 0l-1.266 1.268a.89.89 0 0 0-.093 1.14v.002a12 12 0 0 0 3.044 3.043.894.894 0 0 0 1.141-.092l1.268-1.267a.88.88 0 0 0 0-1.245l1.06-1.06c.93.93.93 2.436 0 3.366L7.91 15.306a2.39 2.39 0 0 1-2.875.378l-.18-.114a13.5 13.5 0 0 1-3.422-3.423 2.39 2.39 0 0 1 .263-3.055z" />
    <path d="M10.203 5.737a.75.75 0 0 1 1.06 1.06l-4.465 4.467a.75.75 0 0 1-1.061-1.061z" />
    <path d="M9.091 1.695a2.39 2.39 0 0 1 3.057-.264 13.5 13.5 0 0 1 3.422 3.422l.113.181a2.39 2.39 0 0 1-.378 2.875L14.04 9.177a2.38 2.38 0 0 1-3.367 0l1.061-1.06a.88.88 0 0 0 1.245 0l1.267-1.269a.894.894 0 0 0 .092-1.141 12 12 0 0 0-3.043-3.043l-.001-.001a.89.89 0 0 0-1.141.093L8.884 4.022a.88.88 0 0 0 0 1.245l-1.06 1.061a2.38 2.38 0 0 1 0-3.366z" />
</svg>
